!!!!SEGMENT: myfile.krn
!!!COM: [Chopin, Fryderyk]
!!!OTL: [Nocturne No. 2.]
!!!OPS: [Op. 32]
!!!OPR: [Deux Nocturnes]
!!!OCL: [Maurice Schlesinger]
!!!NIFC-rismID: [1001032944]
!!!OMD: Lento.
!!!system-decoration: {(s1,s2)}
**kern	**kern	**dynam
*part1	*part1	*part1
*staff2	*staff1	*
*clefF4	*clefG2	*
*k[b-e-a-d-]	*k[b-e-a-d-]	*
*M4/4	*M4/4	*
*met(c)	*met(c)	*
=1-	=1-	=1-
*	*^	*
*	*	*^	*
*ped	*	*	*	*
2AA- 2E- 2A-:	(2e- 2a- 2cc:	2ryy	2ryy	.
*Xped	*	*	*	*
*ped	*	*	*	*
2D- 2A-	4.a-	4f	2d-\	.
.	.	4f-X	.	.
*Xped	*	*	*	*
.	8b-	.	.	.
*	*v	*v	*v	*
=2	=2	=2
*ped	*	*
1A-;< 1E- 1AA-:	1cc; 1a- 1e- 1c):)	.
*Xped	*	*
==3	==3	==3
*Xtuplet	*Xtuplet	*Xtuplet
!LO:TX:a:t=sempre piano e legato.	!	!
*ped	*	*
12AA-L	(>4cc	<
12c 12A-	.	.
*Xped	*	*
12E-J	.	.
*ped	*	*
12AA-L	4bn	.
12B 12A-	.	.
*Xped	*	*
12DnJ	.	.
*ped	*	*
12AA-L	4cc	.
12c 12A-	.	.
*Xped	*	*
12E-J	.	.
*ped	*	*
12AA-L	4ee-	.
12d-X 12G	.	.
*Xped	*	*
12E-J	.	[
=4	=4	=4
*ped	*	*
12AA-L	4cc)	>
12c 12A-	.	.
*Xped	*	*
12E-J	.	.
*ped	*	*
12EE-L	(>8.ccL	.
12d- 12G	.	.
*Xped	*	*
12E-J	.	.
.	16b-Jk	.
12AA-L	4a-)	.
12c 12A-	.	.
12E-J	.	.
12AA-L	4e-	.
12B-	.	]
12E-J	.	.
=5	=5	=5
!!linebreak:original
*ped	*	*
12AA-L	8cL	<
12A-	.	.
.	8e-	.
12E-J	.	.
12AA-L	8a-	.
12c 12A-	.	.
.	8b-J	.
12E-J	.	.
12AA-L	8ccL/	.
12c 12A-	.	.
.	8a-	.
*Xped	*	*
12E-J	.	.
*ped	*	*
!	!LO:TX:a:t=brak oznaczenia cyfrowego trioli	!
!	!LO:TX:a:t=obiegnik przekreślony	!
12CL	12gg$<	.
12e-	12ff	.
*Xped	*	*
12E-J	12ee-J	[
=6	=6	=6
*^	*	*
*ped	*	*	*
12EE-L	4ryy	(>4b-	[
12e-	.	.	.
*Xped	*	*	*
12GJ	.	.	.
*ped	*	*	*
12D-XL\	4D-X/	28anLL	.
.	.	28b-	.
.	.	28cc-X	.
12f-X	.	.	.
.	.	28b-	.
.	.	28dd-	.
12A-J	.	.	.
*Xped	*	*	*
.	.	28cc-	.
.	.	28b-JJ)	.
12F-XL\	4F-X/	4b-	<
12d-	.	.	.
12A-J	.	.	.
12E-L\	4E-/	(>4bn	.
12d-	.	.	[
12GJ	.	.	.
*v	*v	*	*
=7	=7	=7
*ped	*	*
12AA-L	4cc	[
12c 12A-	.	.
*Xped	*	*
12E-J	.	.
*ped	*	*
12AA-L	4bn	.
12Bn 12A-	.	.
*Xped	*	*
12DnJ	.	.
*ped	*	*
12AA-L	4cc	.
12c 12A-	.	.
*Xped	*	*
12E-J	.	.
*ped	*	*
12AA-L	4ee-	.
12d- 12G	.	.
*Xped	*	*
12E-J	.	.
=8	=8	=8
!!linebreak:original
*ped	*	*
12AA-L	4cc)	.
12c 12A-	.	.
*Xped	*	*
12E-J	.	.
*ped	*	*
12CL	(>8.ccL	>
12en 12G	.	.
*Xped	*	*
12cJ	.	.
.	16b-Jk	]
*ped	*	*
12FL	4a-\)	.
12f 12c	.	.
*Xped	*	*
12A-J	.	.
.	16qa-/LL	.
.	16qb-/JJ	.
*ped	*	*
12D-L	4b-TT	.
12f 12B-	.	.
*Xped	*	*
[12GJ	.	.
.	16qa-/LL	.
.	16qb-/JJ	.
=9	=9	=9
*ped	*	*
12GL] 12C	(>20ccLL	.
.	20dd-	.
12en 12B-	.	.
.	20cc	.
.	20bn	.
12cJ	.	.
*Xped	*	*
.	20ccJJ	.
.	8qcc/	.
*ped	*	*
12FL	>12aa-L)	.
12f 12A-	(12.gg	.
12cJ	.	.
*Xped	*	*
.	24ffJk	.
*ped	*	*
12D-L	12ffL	>
12f 12A-	12.ee-	.
12B-J	.	.
*Xped	*	*
.	24dd-Jk	.
*ped	*	*
12E-L	28dd-LL	.
.	28ee-	.
.	28dd-J	.
12e 12G	.	.
.	14cc)	.
12d-J	.	.
*Xped	*	*
.	28r	.
.	(28b-XJk	]
=10	=10	=10
*ped	*	*
12AA-L	4a-	]
12c 12A-	.	.
*Xped	*	*
12E-J	.	.
*ped	*	*
12AA-L	4f	.
12Bn 12A-	.	.
*Xped	*	*
12DnJ	.	.
*ped	*	*
12AA-L	4a-)	.
12c 12A-	.	.
*Xped	*	*
12E-J	.	.
*ped	*	*
12CL	(8.gL\	>
12e-	.	.
12A-J	.	.
*Xped	*	*
.	16a-Jk	]
!!linebreak:original
=11	=11	=11
*^	*	*
12GL\	4G/	4b-	<
12e-	.	.	.
12B-J	.	.	.
12G-XL\	4G-X/	4cc	.
12e-	.	.	.
12B-J	.	.	.
12FL\	4F/	4cc	.
12e-	.	.	.
12AnJ	.	.	.
*ped	*	*	*
12BB-L\	4ryy	4dd-	.
12d-	.	.	.
*Xped	*	*	*
12FJ	.	.	[
=12	=12	=12	=12
*ped	*	*	*
12E-L\	4E-/	8dd-L	[
12g-X	.	.	.
.	.	24dd-L	.
*Xped	*	*	*
12B-J	.	24ee-	.
.	.	24dd-J	.
12G-XL\	4G-X/	8.cc	.
12e-	.	.	.
12B-J	.	.	.
.	.	16b-Jk	.
12FL\	4F/	4an\	.
12e-	.	.	.
12cJ	.	.	.
12BB-L\	4ryy	4b-	.
12d-	.	.	.
12B-J	.	.	.
=13	=13	=13	=13
12F-XL\	4F-X/	4b-	.
12d-	.	.	.
12A-J	.	.	.
*ped	*	*	*
12E-L\	4E-/	8.ccL	.
12d-	.	.	.
*Xped	*	*	*
12GJ	.	.	.
.	.	16b-Jk	.
*ped	*	*	*
12D-L\	4D-/	4ff	>
12e-	.	.	.
*Xped	*	*	*
12GJ	.	.	.
*ped	*	*	*
12CL\	4C/	4ee-	.
12e-	.	.	.
*Xped	*	*	*
12A-J	.	.	.
!!linebreak:original
=14	=14	=14	=14
*ped	*	*	*
2ryy	12BB-L	4dd-	.
.	12e-	.	.
*Xped	*	*	*
.	12GJ	.	.
.	.	8qcc/	.
*ped	*	*	*
.	12AA-L	4cc	.
.	12e-	.	]
*Xped	*	*	*
.	12A-J	.	.
.	.	8qcc/L	.
.	.	8qdd-/	.
.	.	8qcc/	.
.	.	8qbn/	.
.	.	8qcc/	.
.	.	8qbb-X/	.
.	.	8qaa-/	.
.	.	8qee-/	.
.	.	8qcc/J	.
*ped	*	*	*
!	!LO:TX:a:t=nuta e w złym miejscu	!	!
4e-	(12EE-L	4an\	>
.	12e-	.	]
.	12F#XJ	.	.
*Xped	*	*	*
!	!LO:TX::a:t=brak bemola	!	!
4ryy	12GL	8b-)	.
.	12d-	.	.
.	.	16r	.
.	12E-J	.	.
.	.	(>16bn	.
*v	*v	*	*
=15	=15	=15
*ped	*	*
)12AA-L	4cc	.
12c 12A-	.	.
*Xped	*	*
12E-J	.	.
*ped	*	*
12AA-L	4bn	<
12Bn 12A-	.	.
*Xped	*	*
12DnJ	.	.
*ped	*	*
12AA-L	4cc	.
12c 12A-	.	.
*Xped	*	*
12E-J	.	.
*ped	*	*
12AA-L	4ee-	.
12d-X 12G	.	.
*Xped	*	*
12E-J	.	[
=16	=16	=16
*ped	*	*
12AA-L	4cc)	[
12c 12A-	.	.
*Xped	*	*
12E-J	.	.
*ped	*	*
12CL	(>8.ccL	.
12en 12G	.	.
*Xped	*	*
12cJ	.	.
.	16b-Jk)	.
*ped	*	*
12FL	4a-\	<
12f 12c	.	.
*Xped	*	*
12A-J	.	.
.	16qa-/LL	.
.	16qb-/JJ	.
*ped	*	*
12D-L	4b-TT	.
12f 12B-	.	.
*Xped	*	*
[12GJ	.	.
.	16qa-/LL	[
.	16qb-/JJ	.
!!linebreak:original
=17	=17	=17
*ped	*	*
12GL] 12C	(>20ccLL	.
.	20dd-	.
12en 12B-	.	.
.	20cc	.
.	20bn	.
12cJ	.	.
*Xped	*	*
.	20ccJJ	.
.	8qcc/	>
*ped	*	*
12FL	12aa-L)	.
12f 12A-	(>12.gg	.
*Xped	*	*
12cJ	.	.
.	24ffJk	.
*ped	*	*
12D-L	12ffL	.
12f 12A-	12ee-	.
*Xped	*	*
12B-J	12dd-J	.
*ped	*	*
12E-L	28dd-LL	.
.	28ee-	.
.	28dd-J	.
12e-X 12G	.	.
.	14cc)	.
12d-J	.	.
*Xped	*	*
.	28r	.
.	(28b-XJk	]
=18	=18	=18
!!linebreak:original
*ped	*	*
12AA-L	4a-\	]
12c 12A-	.	.
*Xped	*	*
12E-J	.	.
*ped	*	*
12AA-L	4f	.
12Bn 12A-	.	.
*Xped	*	*
12DnJ	.	.
*ped	*	*
12AA-L	4a-\)	.
12c 12A-	.	.
*Xped	*	*
12E-J	.	.
*ped	*	*
12CL	(8.gL\	>
12e-	.	.
12A-J	.	]
*Xped	*	*
.	16a-Jk	.
=19	=19	=19
*^	*	*
12GL\	4G/	4b-	<
12e-	.	.	.
12B-J	.	.	.
12G-XL\	4G-X/	4cc	.
12e-	.	.	.
12B-J	.	.	.
12FL\	4F/	4cc	.
12e-	.	.	.
12AnJ	.	.	.
*ped	*	*	*
4ryy	12BB-L	4dd-	[
.	12d-	.	.
*Xped	*	*	*
.	12FJ	.	.
!!linebreak:original
=20	=20	=20	=20
*ped	*	*	*
12E-L\	4E-/	8dd-L	[
12g-X	.	.	.
.	.	24dd-L	.
12B-J	.	24ee-	.
*Xped	*	*	*
.	.	24dd-J	.
*ped	*	*	*
12G-XL\	4G-X/	8.cc	.
12e-	.	.	.
*Xped	*	*	*
12B-J	.	.	.
.	.	16b-Jk	.
*ped	*	*	*
12FL\	4F/	4an\	.
12e-	.	.	.
*Xped	*	*	*
12cJ	.	.	.
*ped	*	*	*
4ryy	12BB-L	4b-)	.
.	12d-	.	.
*Xped	*	*	*
.	12B-J	.	.
=21	=21	=21	=21
*	*^	*	*
*ped	*	*	*	*
12F-XL\	4F-X/	2ryy	(4b-	.
12d-	.	.	.	.
*Xped	*	*	*	*
12A-J	.	.	.	.
*ped	*	*	*	*
!LO:N:vis=	!	!	!	!
12E-L\	2.E-/	.	8.ccL	.
<12d-	.	.	.	.
12GJ	.	.	.	.
*Xped	*	*	*	*
.	.	.	16b-Jk	.
*ped	*	*	*	*
!	!LO:TX:a:i:t=przesunięcie nut C i D	!	!	!
12D-L\	.	4D-/	4ffn	>
12e-	.	.	.	.
!LO:TX:a:i:t=brak znaku * ped	!	!	!	!
12GJ	.	.	.	.
*ped	*	*	*	*
12CL\	.	4C/	4ee-	.
12e-	.	.	.	.
(12A-J	.	.	.	.
*Xped	*	*	*	*
*	*v	*v	*	*
=22	=22	=22	=22
*ped	*	*	*
2E-	12BB-L)	4dd-	.
.	12e-	.	.
*Xped	*	*	*
.	12GJ	.	.
.	.	8qcc/	]
*ped	*	*	*
.	12AA-L	4cc	.
!LO:TX:a:t=delicatiss.	!	!	!
.	12e-	.	.
.	>12A-J	.	.
*Xped	*	*	*
.	.	8qcc/L	.
.	.	8qdd-/	.
.	.	8qcc/	.
.	.	8qb/	.
.	.	8qcc/	.
.	.	8qbb-X/	.
.	.	8qaa-/	.
.	.	8qccc/	.
.	.	8qaa-/	.
.	.	8qee-/	.
.	.	8qcc/J	.
4ryy	12EE-L	4an	>
*ped	*	*	*
.	12e-	.	.
.	12F#XJ	.	.
*Xped	*	*	*
!	!	!LO:N:vis=4	!
!LO:TX:a:t=brak bemola	!	!	!
4ryy	12GL	8b-X)	.
.	12d-	.	]
.	.	(16bn	.
.	12E-J	.	.
.	.	16r	.
*v	*v	*	*
!!linebreak:original
=23	=23	=23
*ped	*	*
12AA-L)	4cc	<
12c 12A-	.	.
*Xped	*	*
12E-J	.	.
*ped	*	*
12AA-L	4bn	.
12Bn 12A-	.	.
*Xped	*	*
12DnJ	.	.
*ped	*	*
12AA-L	4cc	.
12c 12A-	.	.
*Xped	*	*
12E-J	.	.
*ped	*	*
12AA-L	4ee-	.
12d- 12G	.	.
*Xped	*	*
12E-J	.	[
=24	=24	=24
*ped	*	*
12AA-L	4cc	.
12c 12A-	.	.
*Xped	*	*
12E-J	.	.
*ped	*	*
12CL	8.ccL	>
12en 12G	.	.
*Xped	*	*
12cJ	.	]
.	16b-Jk)	.
*ped	*	*
12FL	(>4a-\	<
12f 12c	.	.
*Xped	*	*
12A-J	.	.
.	16qa-/LL	.
.	16qb-/JJ	.
*ped	*	*
12D-L	4b-TT	.
12f 12B-	.	.
*Xped	*	*
[12GJ	.	[
.	16qa-/LL	.
.	16qb-/JJ	.
=25	=25	=25
!!linebreak:original
*ped	*	*
12GL] 12C	20ccLL	.
.	20dd-	.
12en 12B-	.	.
.	20cc	.
.	20bn	.
12cJ	.	.
*Xped	*	*
.	20ccJJ	.
.	8qcc/	>
*ped	*	*
12FL	12aa-L)	.
12f 12A-	12.gg	.
*Xped	*	*
12cJ	.	.
.	(24ffJk	.
*ped	*	*
12D-L	12ffL	.
12f 12A-	12ee-X	.
*Xped	*	*
12B-J	12dd-J	.
.	16qcc/LL	.
.	16qee-/JJ	]
*ped	*	*
12E-L	12dd-L	.
12e-X 12G	12cc)	.
12d-J	24r	.
*Xped	*	*
.	(>24b-XJk	.
=26	=26	=26
*^	*	*
*ped	*	*	*
6ryy	(>12AA-L	4a-)\	.
.	12c 12A-	.	.
*Xped	*	*	*
12Dn	12DnJ	.	.
6F	12FL	4r	.
.	12c 12A-	.	.
12E-	12E-J	.	.
*ped	*	*	*
2ryy	12AA-L)	4r	.
.	(>12c 12A-	.	.
*Xped	*	*	*
.	12E-J)	.	.
*ped	*	*	*
.	(>12GGL\	[4cc	>
.	12B- 12En	.	]
.	12CJ)	.	.
*Xped	*	*	*
*v	*v	*	*
==27	==27	==27
!!linebreak:original
*M12/8	*M12/8	*
*	*	*
.	16qcc/LL	.
.	16qdd-/JJ	.
8FF'L	8ccL]\	.
8c 8A-	(>8bn 8f	.
8cJ 8A-	8ccJ 8f	.
8cL 8A-	8ffL) 8f	.
8c 8A-	(>8een' 8f	.
8cJ 8A-	8ee-X'J 8f	.
8BB-'L	8ddn'L 8f\	.
8d- 8G	8dd-X' 8f	.
8d-J 8G	8cc'J 8f	.
8d-L 8G	8b'L 8f\	.
8d- 8G	8cc' 8f	.
8d-J 8G	8dd-'J 8f	.
=28	=28	=28
.	16qg/LL	.
.	16qa-/JJ	.
*^	*	*
!LO:N:vis=2	!	!	!
8CL\	2.C/	8gL) 8f\	.
8c 8B- 8G	.	(>8f#X	.
8cJ 8B- 8G	.	8gJ 8fn	.
8cL 8B- 8G\	.	8dd-'L 8en\	.
8c 8B- 8G	.	8cc' 8e	.
8cJ 8B- 8G	.	8g'J 8e	.
!	!	!LO:HP:b	!
!LO:TX:a:t=decrescendo pod dolną pięciolinią	!	!	!
8FL\	[4.F/	8b-'L 8f\	>
8c 8A-	.	8a-' 8f	.
8cJ 8A-	.	8g'J 8f	.
8cL 8A-\ >8F]	4.ryy	8a-'L 8f\	.
(8E-	.	8b-' 8f	]
8D-J)	.	8bn'J 8f	.
=29	=29	=29	=29
8CL\	4.C/	8ccL 8en\	.
8c 8B-) 8G	.	8dd-) 8e	.
8cJ 8B- 8G	.	(>8ccJ [8e	.
8FL\	4F/	8b-ML 8e]\	.
8c 8A-	.	8a-) 8f	.
8D-J	8ryy	(>8b-J 8f	.
8CL\	4.C/	8ccL 8e\	.
8c 8B- 8G	.	8dd-) 8e	.
8cJ 8B- 8G	.	(>8ccJ [8e	.
8FL\	4F/	8b-ML 8e]\	<
8c 8A-	.	8a-) 8f	.
8dnJ 8A- 8F-X	8ryy	(8b-J 8a-	[
*v	*v	*	*
!!linebreak:original
=30	=30	=30
8e-L 8A- 8E-	8ccL 8a-\	.
>8f' 8A- 8E-	8dd-' 8a-	.
8e-'J 8A- 8E-	8cc'J 8a-	.
8e--'L 8A- 8E-X	8b-'ML 8f\	.
8d-' 8A- 8E-	8a-' 8f-X	.
8d-'J 8G 8E-	8b-'J [8e-	.
*ped	*	*
8AA-'L	8ccL 8e-]\	<
8c 8A-	8dd- 8e-)	.
*Xped	*	*
8cJ 8A-	(8ccJ [8e-	.
*ped	*	*
8GG'L	8b-ML 8e-]\	.
8c 8B- 8G	8a- 8en)	.
*Xped	*	*
8cJ 8B- 8G	(>8b-J 8e	[
=31	=31	=31
*ped	*	*
8FF'L	8ccL)\	.
8f 8c 8F	(8bn 8a-	<
*Xped	*	*
8fJ 8c 8F	8ccJ 8a-	.
8fL 8c 8F	8aa-L 8a-)\	[
8f 8c 8F	(8gg' 8a-	>
8fJ 8c 8F	8gg-X'J 8a-	.
*ped	*	*
8BB-'L	8ff'L 8gn\	.
8f 8d- 8B- 8G	8een' 8g	.
8fJ 8d- 8B- 8G	8ee-X'J 8g	.
8fL 8d-X 8B- 8G	8ddnL 8g\	.
8f 8d- 8B- 8G	8dd-X' 8g	.
8fJ 8d- 8B- 8G	8cc'J 8g	]
*Xped	*	*
=32	=32	=32
.	(<16qb-/LL	.
.	16qcc/JJ	.
*^	*	*
*ped	*	*	*
2.ryy	8C'L	8b-L 8g)\	.
.	8f 8B- 8G	8an 8g	.
*Xped	*	*	*
.	8fJ 8B- 8G	8b-J 8g	.
.	8B-L 8G	8dd-L 8en\	.
.	8B- 8G	8cc 8e	.
.	8B-J 8G	8gJ 8e	.
4.F	8FL	8b-L 8f\	.
.	8c 8A-	8a-X 8f	.
.	8cJ 8A-	8gJ 8f	.
4.ryy	8cL (8A- >8F	8a-L 8\	<
.	8E-	8b- 8f	.
.	8D-J)	8bnJ 8f	[
=33	=33	=33	=33
!!linebreak:original
8CL\	4.C/	8ccL 8en\	.
8c 8B- 8G	.	8dd- 8e)	.
8cJ 8B- 8G	.	(>8ccJ [8e	.
8FL\	4F/	8b-ML 8e]\	.
8c 8A-	.	8a-) 8f	.
8D-J	8ryy	((<8b-J 8f	.
8CL\	4.C/	8ccL 8e\)	.
8c 8B- 8G	.	8dd-) 8e	.
8cJ 8B- 8G	.	(>8ccJ [8e	.
8FL\	4F/	8b-ML 8e]\	<
8c 8A-	.	8a-) 8f	.
8dnJ 8A- 8F-X	8ryy	(8b-J 8a-	[
*v	*v	*	*
=34	=34	=34
>8e-L 8A- 8E-	8ccL 8a-\	.
(8f' 8A- 8E-	8dd-' 8a-	.
8e-'J 8A- 8E-	8cc'J 8a-	.
8e--'L 8A- 8E-	8b-ML 8f)\	.
8d-' 8A- 8E-	8a- 8f-X	.
8d-'J) 8G 8E-	(>8b-J [8e-	.
*ped	*	*
8AA-'L	8ccL 8e-]\	<
8e-- 8A-	8dd-) 8g-X	.
*Xped	*	*
8e--J 8A-	(>8ccJ [8g-	.
*ped	*	*
8AA-'L	8b-ML 8g-]\	.
8d- 8A-	8a-) 8g-	.
*Xped	*	*
!	!LO:TX:a:t=ligatura nie wyświetla się	!
8d-J 8A-	(8b-J [8g-	[
=35	=35	=35
*	*^	*
*ped	*	*	*
8AA-'L	2.ryy	(8ccL) 8g]	<
8c 8A-	.	8dd- 8g	.
*Xped	*	*	*
8cJ 8A-	.	8ee-J 8g	.
*ped	*	*	*
8D-'L	.	8ffL 8f\	.
8d- 8A-	.	8cc 8f	[
*Xped	*	*	*
8d-J 8A-	.	8dd-J) 8f	.
*ped	*	*	*
!	!	!LO:TX:a:t=przesunięcie nut 4bb-- i 4bb-	!
8C'L	4bb--	8b--L 8bb--	>
8g- 8e-	.	8ee-	]
*Xped	*	*	*
8g-J 8A-	8ryy	8aa-J) 8a-	.
*ped	*	*	*
8D-'L	4bb-X	(>8b-XL 8bb-	>
8f 8d-	.	8dd-	]
*Xped	*	*	*
8fJ 8A-	8ryy	8aa-J 8a-)	.
!!linebreak:original
=36	=36	=36	=36
*ped	*	*	*
8BB-'L	2.ryy	(>8ddnL 8a-	<
8f 8B-	.	8ee- 8a-	.
8fJ 8B-	.	8ffJ 8a-	.
*Xped	*	*	*
*ped	*	*	*
8E-'L	.	8gg-XL 8g-X	.
8e- 8B-	.	8dd 8g-	.
8e-J 8B-	.	8ee-J) 8g-	[
*Xped	*	*	*
*ped	*	*	*
8Dn'L	4ccc-X	(>8cc-XL 8ccc-	>
8a- 8f	.	8ff	]
*Xped	*	*	*
8a-J 8B-	8ryy	8bb-J) 8b-	.
*ped	*	*	*
8E-'L	4ccc-	(>8cc-L 8ccc-	>
8g 8e-	.	8ee-	]
8gJ 8B-	8ryy	8bb-J) 8b-	.
*Xped	*	*	*
=37	=37	=37	=37
*ped	*	*	*
8C'L	(>4bb--	8b--L 8bb-X	>
8g-X 8e-	.	8ee-	]
*Xped	*	*	*
8g-J 8A-	8ryy	8aa-J 8a-)	.
*ped	*	*	*
8D-'L	(4ggn	8gnL 8ggn	>
8f 8d-	.	8dd-	]
*Xped	*	*	*
8fJ 8A-	8ryy	8aa-J 8a-)	.
*ped	*	*	*
8BB-'L	(>4aa--	8a--L 8aa-X	>
8f-X 8d-	.	8dd-	]
*Xped	*	*	*
8f-J 8G-X	8ryy	8gg-XJ 8g-X)	.
*ped	*	*	*
8C-X'L	(4ff	8fL 8ff	>
8e- 8c-X	.	8cc-X	]
*Xped	*	*	*
8e-J 8G-	8ryy	8gg-J 8g-)	.
=38	=38	=38	=38
*ped	*	*	*
8AA-'L	(>4ff	8fL 8ff	>
8e-- 8c-X	.	8cc-X	]
*Xped	*	*	*
8e--J 8F-X	8ryy	8ff-XJ 8f-X)	.
*ped	*	*	*
8GGn'L	(4ff-	8f-L 8ff-	>
8d- 8B-	.	8b-	.
*Xped	*	*	*
8d-J 8E-	8ryy	8ee-J 8e-)	]
*ped	*	*	*
8FF#X'L	(>4ee-	8e-L 8ee-	>
8cn 8A-	.	8an	]
*Xped	*	*	*
8cJ 8Dn	8ryy	8ddnJ 8dn)	.
*ped	*	*	*
8EE#X'L	(4dd	8dL 8dd	>
8Bn 8G#X	.	8g#X	]
*Xped	*	*	*
8BJ 8C#X	8ryy	8cc#XJ 8c#X)	.
*	*v	*v	*
==39	==39	==39
!!linebreak:original
*k[f#c#g#]	*k[f#c#g#]	*
!	!LO:TX:t=łamana belka	!
8FF#'L 8FFF#	8cc#mL\	fz
8c# 8A 8F#\	(>8b#X 8f#	<
8c#J 8A 8F#	8cc#J 8f#	[
8c#L 8A 8F#	8ff#L) 8f#\	.
8c# 8A 8F#	(>8ee#X' 8f#	.
8c#J 8A 8F#	8een'J 8f#	.
*ped	*	*
8BB'L	8dd#X'L 8f#\	.
8d 8G# 8F#	8ddn' 8f#	.
8dJ 8G# 8F#	8cc#'J 8f#	.
8dL 8G# 8F#	8bn'L 8f#\	.
8d 8G# 8F#	8cc#' 8f#	.
*Xped	*	*
8dJ 8G# 8F#	8dd'J) 8f#	.
=40	=40	=40
*^	*	*
8C#L\	2.C#/	(8g#L 8f#	.
8c# 8B	.	8f##X 8fn	.
8c#J 8B	.	8g#J 8f	.
8c#L 8B 8G#\	.	8ddL 8e#X\	.
8c# 8B 8G#	.	8cc# 8e#	.
8c#J 8B 8G#	.	8g#J 8e#	.
!	!	!LO:HP:b	!
8F#L\	[4.F#/	8bL 8f\	>
8c# 8A	.	8a 8f	.
8c#J 8A	.	8g#J 8f	.
8c#L 8A >8F#]\	4.ryy	8a'L 8f\	.
(8E	.	8b 8f	.
8DnJ	.	8b#XJ 8f	]
=41	=41	=41	=41
8C#L\	4.C#)/	8cc#L 8e#X\	.
8c# 8B) 8G#	.	8dd 8e#	.
8c#J 8B 8G#	.	8cc#J [8e#	.
8F#L\	4.F#/	8bML 8e#]\	.
8c# 8A	.	8a 8f#	.
8DnJ	.	8bJ 8f#	.
8C#L\	4.C#/	8cc#L 8e#\	.
8c# 8B 8G#	.	8dd) 8e#	.
8c#J 8B 8G#	.	8cc#J [8e#	.
8F#L\	4F#/	8bML 8e#]\	<
8c# 8A	.	8a 8f#	.
8d#XJ 8A 8Fn	8ryy	(8bJ 8a	[
*v	*v	*	*
!!linebreak:original
=42	=42	=42
8eL 8A 8E	8cc#L 8a\	.
(>8f#X' 8A 8E	8dd' 8a	.
8e'J 8A 8E	8cc#'J 8a	.
8d#X'L 8A 8E	8bML 8f#\	.
8dn' 8A 8E	8a' 8fn	.
8d'J) 8G# 8E	8b'J [8e	.
*ped	*	*
8AA'L	8cc#L 8e]\	.
8c# 8A	8dd) 8e	.
*Xped	*	*
8c#J 8A	8cc#J) [8e	.
*ped	*	*
8GG#'L	8bL 8e]\	.
8c# 8B 8G#	8a) 8e#X	.
*Xped	*	*
8c#J 8B 8G#	(>8bJ 8e#	.
=43	=43	=43
!!linebreak:original
*ped	*	*
8FF#'L	8cc#L)\	ff
8f# 8c# 8F#	(8b#X 8a	<
8f#J 8c# 8F#	8cc#J 8a	.
8f#L 8c# 8F#	8aaL) 8a\)	[
8f# 8c# 8F#	(>8gg#' 8a	.
*Xped	*	*
8f#J 8c# 8F#	8ggn'J 8a	.
*ped	*	*
8BB'L	8ff#'L 8g#X\	.
8f# 8d 8B 8G#	8ffn' 8g#	.
8f#J 8d 8B 8G#	8ee'J 8g#	.
8f#L 8d 8B 8G#	8dd#X'L 8g#X\	.
8f# 8d 8B 8G#	8ddn' 8g#	.
*Xped	*	*
8f#J 8d 8B 8G#	(8cc#'J) 8g#	.
=44	=44	=44
*^	*	*
*ped	*	*	*
4.ryy	8CC#'L	(>8bML) 8g#\	.
.	8d 8B 8G#	8a#X 8g#	.
.	8dJ 8B 8G#	8bJ 8f#	.
4.C#	8C#L	8ddL 8e#X\	.
.	8c# 8B 8G#	8cc# 8e#	.
.	8c#J 8B 8G#	8g#J 8e#	.
!	!	!LO:HP:b	!
4.F#	8F#L	8bL 8f#\	>
.	8c# 8A	8a# 8f#	.
.	8c#J (8A	8g#J 8f#	.
4.ryy	8c#L 8A 8F#)	8aL 8f#\	.
.	8E	8b 8f#	.
.	8DJ	8b#XJ 8f#	]
=45	=45	=45	=45
!!linebreak:original
8C#L\	4.C#/	8cc#L 8e#X\	.
8c# 8B 8G#)	.	8dd 8e#	.
8c#J 8B 8G#	.	8cc#J [8e#	.
8F#L\	4F#/	8bML 8e#]\	.
8c# 8A	.	8a) 8f#	.
8DnJ	8ryy	(>8bJ 8f#	.
8C#L\	4.C#/	8cc#L 8e#\	.
8c# 8B 8G#	.	8dd) 8e#	.
8c#J 8B 8G#	.	(>8cc#J 8e#	.
8F#L\	4F#/	8bML 8e#]\	<
8c# 8A	.	8a) 8f#	.
8d#XJ 8A 8Fn	8ryy	(8bJ 8a	[
*v	*v	*	*
=46	=46	=46
(8eL 8A 8E	8cc#L 8a\	.
8f# 8A 8E	8dd' 8a	.
8eJ 8A 8E	8cc#'J 8a	.
8d#XL 8A 8E	8bML 8f#\	.
8dn 8A 8E	8a' 8fn	.
8dJ) 8G# 8E	8b'J [8e	.
*ped	*	*
8AA'L	8cc#L 8e]\	.
8e 8A	8dd) 8gn	.
*Xped	*	*
8eJ 8A	(8cc#J [8g	.
*ped	*	*
8AA'L	8bML 8g]\	.
8d 8A	8a 8g	.
*Xped	*	*
8dJ 8A	8bJ [8g	.
=47	=47	=47
!	!LO:TX:a:t=cres_	!
*	*^	*
*ped	*	*	*
8AA'L	2.ryy	8cc#L 8gnX]	<
8e 8A	.	8dd 8g	.
8eJ 8A	.	8eeJ 8g	.
*Xped	*	*	*
*ped	*	*	*
8D'L	.	8ff#L 8f#\	.
8d 8A	.	8cc# 8f#	.
8dJ 8A	.	8ddJ) 8f#	.
*Xped	*	*	*
*ped	*	*	*
8C#'L	(>4bb-X	8b-XL 8bb-X	[>
8g# 8e	.	8ee	]
*Xped	*	*	*
8g#J 8A	8ryy	8aaJ) 8a	.
*ped	*	*	*
8D'L	(4bbn	8bnL 8bbn	>
8f# 8d	.	8dd	]
*Xped	*	*	*
8f#J 8A	8ryy	(8aaJ) 8a	.
!!linebreak:original
=48	=48	=48	=48
!	!	!LO:TX:a:t=- cen -	!
*ped	*	*	*
8BB'L	2.ryy	8dd#XL 8a	<
8f# 8B	.	8ee 8a	.
8f#J 8B	.	8ff#J 8a	.
*Xped	*	*	*
*ped	*	*	*
8E'L	.	8ggnL 8gn	.
8e 8B	.	8dd#X 8g	.
8eJ 8B	.	8eeJ) 8g	.
*Xped	*	*	*
*ped	*	*	*
8D#X'L	(>4cccn	8ccnL 8cccn	[>
8a 8f#	.	8ff#	.
*Xped	*	*	*
8aJ 8B	8ryy	8bbJ) 8b	]
*ped	*	*	*
8E'L	(4ccc	8ccL 8ccc	>
8g# 8e	.	8ee	.
*Xped	*	*	*
8g#J 8B	8ryy	8bbJ) 8b	]
=49	=49	=49	=49
*ped	*	*	*
8C#'L	(>4bb-X	8b-XL 8bb-X	>
8g# 8e	.	8ee	]
*Xped	*	*	*
8g#J 8A	8ryy	8aaJ) 8a	.
*ped	*	*	*
8D'L	(4gg#X	8g#XL 8gg#	>
8f# 8d	.	8dd	]
*Xped	*	*	*
8f#J 8A	8ryy	8aaJ) 8a	.
*ped	*	*	*
8Cn'L	(4bb--	8b--L 8bb--	>
8g-X 8e-X	.	8ee-X	]
*Xped	*	*	*
8g-J 8A-X	8ryy	8aa-XJ) 8a-X	.
*ped	*	*	*
8D-X'L	(4ggn	8gnL 8ggn	>
8fn 8d-X	.	8dd-X	]
*Xped	*	*	*
8fJ 8A-	8ryy	8aa-J) 8a-	.
=50	=50	=50	=50
*ped	*	*	*
!	!LO:TX:a:i:t=nie można ukryć bemola	!	!
8BB-X'L	(>4aa--	8a--L 2aa--	>
8f-X 8d-X	.	8dd-X	.
*Xped	*	*	*
8f-J 8G-X	8ryy	8gg-XJ) 8g-X	]
*ped	*	*	*
8AAn'L	(4gg-	8g-L 8gg-	>
8e-X 8cn	.	8ccn	.
*Xped	*	*	*
8e-J 8Fn	8ryy	8ffnJ) 8fn	]
*ped	*	*	*
8AA-X'L	(4ff	8fL 8ff	>
8d- 8Bn	.	8bn	.
*Xped	*	*	*
8d-J 8En	8ryy	8eenJ) 8en	]
*ped	*	*	*
8GGn'L	(4ff-X	8f-XL 8ff-X	>
!	!LO:TX:a:t=- do.	!	!
8d-X 8B-X	.	8b-X	.
*Xped	*	*	*
8d-J 8E-X	8ryy	8ee-XJ) 8e-X	]
*	*v	*v	*
=51	=51	=51
!!linebreak:original
*k[b-e-a-d-]	*k[b-e-a-d-]	*
*M4/4	*M4/4	*
*met(c)	*met(c)	*
*ped	*	*
!	!LO:TX:a:t=Appassionato.	!
12AA-L	(>4cc	ff
12c 12A-	.	.
*Xped	*	*
12E-J	.	.
*ped	*	*
12AA-L	4bn	.
12Bn 12A-	.	.
*Xped	*	*
12DnJ	.	.
*ped	*	*
12AA-L	4cc	.
12c 12A-	.	.
*Xped	*	*
12E-J	.	.
*ped	*	*
12AA-L	4ee-	.
12d- 12G	.	.
*Xped	*	*
12E-J	.	.
=52	=52	=52
*ped	*	*
12AA-L	4cc)	.
12c 12A-	.	.
*Xped	*	*
12E-J	.	.
*ped	*	*
12EE-L	(>8.ccL	.
12d- 12G	.	.
*Xped	*	*
12E-J	.	.
.	16b-Jk	.
*ped	*	*
12AA-L	4a-\	.
12c 12A-	.	.
*Xped	*	*
12E-J	.	.
*ped	*	*
12AA-L	(4e-)	.
12B-	.	.
*Xped	*	*
12E-J	.	.
=53	=53	=53
*ped	*	*
12AA-L	8cL	.
12A-	.	.
.	8e-	.
12E-J	.	.
12AA-L	8a-	.
12c 12A-	.	.
.	8b-J	.
12E-J	.	.
12AA-L	8ccL/	.
12c 12A-	.	.
.	8a-$<	.
12E-J	.	.
*Xped	*	*
!	!LO:TX:a:t=brak oznaczenia trioli	!
!	!LO:TX:t=obiegnik prekreślony	!
12CL	12gg	.
12e-	12ff	.
12E-J	12ee-J)	.
=54	=54	=54
*^	*	*
*ped	*	*	*
4ryy	12EE-L	(>4b-	.
.	12e-	.	.
*Xped	*	*	*
.	12GJ	.	.
*ped	*	*	*
12D-XL\	4D-X/	28anLL	.
.	.	28b-	.
.	.	28cc-X	.
12f-X	.	.	.
.	.	28b-	.
.	.	28dd-	.
12A-J	.	.	.
*Xped	*	*	*
.	.	28cc-	.
.	.	28b-JJ	.
12F-XL\	4F-X/	4b-)	<
12d-	.	.	.
12A-J	.	.	.
12E-L\	4E-/	(>4bn	.
12d-	.	.	[
12GJ	.	.	.
*v	*v	*	*
!!linebreak:original
=55	=55	=55
*ped	*	*
12AA-L	4cc	.
12cn 12A-	.	.
*Xped	*	*
12E-J	.	.
*ped	*	*
12AA-L	4bn	.
12Bn 12A-	.	.
*Xped	*	*
12DnJ	.	.
*ped	*	*
12AA-L	4cc	.
12c 12A-	.	.
*Xped	*	*
12E-J	.	.
*ped	*	*
12AA-L	4ee-	.
12d- 12G	.	.
*Xped	*	*
12E-J	.	.
=56	=56	=56
*ped	*	*
12AA-L	4cc)	.
12c 12A-	.	.
*Xped	*	*
12E-J	.	.
*ped	*	*
12CL	(>8.ccL	>
12en 12G	.	.
*Xped	*	*
12cJ	.	]
.	16b-Jk	.
*ped	*	*
12FL	4a-)	.
12f 12c	.	.
*Xped	*	*
12A-J	.	.
.	16qa-/LL	.
.	16qb-/JJ	.
*ped	*	*
12D-L	4b-TT	.
12f 12B-	.	.
*Xped	*	*
[12GJ	.	.
.	16qa-/LL	.
.	16qb-/JJ	.
=57	=57	=57
!!linebreak:original
*ped	*	*
12GL] 12C	(20ccLL	<
.	20dd-	.
12e- 12B-	.	.
.	20cc	.
.	20bn	.
12cJ	.	.
*Xped	*	*
.	20ccJJ	.
.	8qcc/	[
*ped	*	*
12FL	12aa-L)	.
12f 12A-	(>12.gg	.
12cJ	.	.
*Xped	*	*
.	24ffJk	.
*ped	*	*
12D-L	12ffL	>
12f 12A-	12.ee-	.
12B-J	.	.
*Xped	*	*
.	24dd-Jk	.
*ped	*	*
12E-L	28dd-LL	.
.	28ee-	.
.	28dd-J	.
12e- 12G	.	.
.	14cc)	.
12d-J	.	.
*Xped	*	*
.	28r	.
.	(>28bJk	]
!!linebreak:original
=58	=58	=58
*ped	*	*
12AA-L	4a-	.
12c 12A-	.	.
*Xped	*	*
12E-J	.	.
*ped	*	*
12AA-L	4f	.
12Bn 12A-	.	.
*Xped	*	*
12DnJ	.	.
*ped	*	*
12AA-L	4a-)	.
12c 12A-	.	.
*Xped	*	*
12E-J	.	.
*ped	*	*
12CL	(8.gL\	.
12e-	.	.
12A-J	.	.
*Xped	*	*
.	16a-Jk	.
=59	=59	=59
*^	*	*
12GL\	4G/	4b-	<
12e-	.	.	.
12B-J	.	.	.
12G-XL\	4G-X/	4cc	.
12e-	.	.	.
12B-J	.	.	.
12FL\	4F/	4cc	.
12e-	.	.	.
12AnJ	.	.	.
*ped	*	*	*
12BB-L\	4ryy	4dd-	.
12d-	.	.	.
*Xped	*	*	*
12FJ	.	.	[
=60	=60	=60	=60
*ped	*	*	*
12E-L\	4E-/	8dd-L	.
12g	.	.	.
.	.	24dd-L	.
12B-J	.	24ee-	.
*Xped	*	*	*
.	.	24dd-J	.
12G-XL\	4G-X/	8.cc	.
12e-	.	.	.
12B-J	.	.	.
.	.	16b-Jk	.
12FL\	4F/	4an\	.
12e-	.	.	.
12cJ	.	.	.
12BB-L\	4ryy	4b-	.
12d-	.	.	.
12B-J	.	.	.
!!linebreak:original
=61	=61	=61	=61
12F-XL\	4F-X/	4b-	.
12d-	.	.	.
12A-J	.	.	.
*ped	*	*	*
12E-L\	4E-/	8.ccL	.
12d-	.	.	.
*Xped	*	*	*
12GJ	.	.	.
.	.	16b-Jk	.
*ped	*	*	*
12D-L\	4D-/	4ff	>
12e-	.	.	.
*Xped	*	*	*
12GJ	.	.	.
*ped	*	*	*
12CL\	4C/	4ee-	.
12e-	.	.	.
*Xped	*	*	*
12A-J	.	.	.
=62	=62	=62	=62
*ped	*	*	*
2ryy	12BB-L	4dd-	.
.	12e-	.	.
.	12GJ	.	.
*Xped	*	*	*
.	.	8qcc/	.
*ped	*	*	*
.	12AA-L	4cc	]
!LO:TX:a:t=delicatiss.	!	!	!
.	12e-	.	.
.	12A-J	.	.
*Xped	*	*	*
.	.	8qcc/L	.
.	.	8qdd-/	.
.	.	8qcc/	.
.	.	8qbn/	.
.	.	8qcc/	.
.	.	8qbb-X/	.
.	.	8qaa-/	.
.	.	8qee-/	.
.	.	8qcc/J	.
*ped	*	*	*
12ryy	12EE-L	4an\	>
6ryy	12e-	.	]
.	12F#XJ	.	.
*Xped	*	*	*
!	!LO:TX:a:t=brak kasownika	!	!
4ryy	12GL	8bnX)	.
.	12d-	.	.
.	.	16r	.
.	12E-J	.	.
.	.	(16bn	.
*v	*v	*	*
=63	=63	=63
*ped	*	*
12AA-L	4cc	.
12c 12A-	.	.
*Xped	*	*
12E-J	.	.
*ped	*	*
12AA-L	4bn	<
12Bn 12A-	.	.
*Xped	*	*
12DnJ	.	.
*ped	*	*
12AA-L	4cc	.
12c 12A-	.	.
*Xped	*	*
12E-J	.	.
*ped	*	*
12AA-L	4ee-	.
12d- 12G	.	[
*Xped	*	*
12E-J	.	.
=64	=64	=64
!!linebreak:original
*ped	*	*
12AA-L	4cc)	.
12c 12A-	.	.
*Xped	*	*
12E-J	.	.
*ped	*	*
12CL	(>8.ccL	.
12en 12G	.	.
*Xped	*	*
12cJ	.	.
.	16b-Jk)	.
*ped	*	*
12FL	4a-\	<
12f 12c	.	.
*Xped	*	*
12A-J	.	.
.	16qa-/LL	.
.	16qb-/JJ	.
*ped	*	*
12D-L	4b-TT	.
12f 12B-	.	[
*Xped	*	*
[12GJ	.	.
.	16qa-/LL	.
.	16qb-/JJ	.
=65	=65	=65
*ped	*	*
12GL] 12C	(>20ccLL	.
.	20dd-	.
12en 12B-	.	.
.	20cc	.
.	20bn	.
12cJ	.	.
*Xped	*	*
.	20ccJJ	.
.	8qcc/	.
*ped	*	*
12FL	12aa-L)	.
12f 12A-	(12.gg	.
12cJ	.	.
*Xped	*	*
.	24ffJk	.
*ped	*	*
12D-L	12ffL	.
12f 12A-	12ee-	.
*Xped	*	*
12B-J	12dd-J	.
*ped	*	*
12E-L	28dd-LL	.
.	28ee-	.
.	28dd-J	.
12e-X 12G	.	.
.	14cc)	.
12d-J	.	.
*Xped	*	*
.	28r	.
.	(28bJk	.
=66	=66	=66
*ped	*	*
12AA-L	4a-\	.
12c 12A-	.	.
*Xped	*	*
12E-J	.	.
*ped	*	*
12AA-L	4f	.
12Bn 12A-	.	.
*Xped	*	*
12DnJ	.	.
*ped	*	*
12AA-L	4a-)\	.
12c 12A-	.	.
*Xped	*	*
12E-J	.	.
*ped	*	*
12CL	(8.gL\	.
12e-	.	.
*Xped	*	*
12A-J	.	.
.	16a-Jk	.
=67	=67	=67
*^	*	*
!!linebreak:original
12GL\	4G/	4b-	<
12e-	.	.	.
12B-J	.	.	.
12G-XL\	4G-X/	4cc	.
12e-	.	.	.
12B-J	.	.	.
12FL\	4F/	4cc	.
12e-	.	.	[
12AnJ	.	.	.
*ped	*	*	*
12BB-L\	4ryy	4dd-	.
12d-	.	.	.
*Xped	*	*	*
12FJ	.	.	.
=68	=68	=68	=68
*ped	*	*	*
12E-L\	4E-/	8dd-L	.
12g-X	.	.	.
.	.	24dd-L	.
12B-J	.	24ee-	.
*Xped	*	*	*
.	.	24dd-J	.
*ped	*	*	*
12G-XL\	4G-X/	8.cc	.
12e-	.	.	.
12B-J	.	.	.
*Xped	*	*	*
.	.	16b-Jk	.
*ped	*	*	*
12FL\	4F/	4an\	.
12e-	.	.	.
*Xped	*	*	*
12cJ	.	.	.
*ped	*	*	*
4ryy	12BB-L	4b-)	.
.	12d-	.	.
.	12B-J	.	.
*Xped	*	*	*
=69	=69	=69	=69
*	*^	*	*
*ped	*	*	*	*
12F-XL\	4F-X/	2ryy	(4b-	.
12d-	.	.	.	.
12A-J	.	.	.	.
*Xped	*	*	*	*
*ped	*	*	*	*
12E-L\	2.E-/	.	8.ccL	.
12d-	.	.	.	.
12GJ	.	.	.	.
*Xped	*	*	*	*
.	.	.	16b-Jk	.
*ped	*	*	*	*
12D-L\	.	4D-/	4ffn	>
12e-	.	.	.	.
12GJ	.	.	.	.
*Xped	*	*	*	*
*ped	*	*	*	*
12CL\	.	4C/	4ee-	.
12e-	.	.	.	.
12A-J	.	.	.	.
*Xped	*	*	*	*
*	*v	*v	*	*
=70	=70	=70	=70
!!linebreak:original
*ped	*	*	*
2E-	12BB-L	4dd-	.
.	12e-	.	.
.	12GJ	.	]
*Xped	*	*	*
.	.	8qcc/	.
*ped	*	*	*
.	12AA-L	4cc	.
!LO:TX:a:t=delicatiss.	!	!	!
.	12e-	.	.
.	12A-J	.	.
*Xped	*	*	*
.	.	8qcc/L	.
.	.	8qdd-/	.
.	.	8qcc/	.
.	.	8qbn/	.
.	.	8qcc/	.
.	.	8qbb-X/	.
.	.	8qaa-/	.
.	.	8qccc/	.
.	.	8qaa-/	.
.	.	8qee-/	.
.	.	8qcc/J	.
*ped	*	*	*
12ryy	12EE-L	4an\	>
6ryy	12e-	.	]
.	12F#XJ	.	.
*Xped	*	*	*
!	!LO:TX:a:i:t=nie można ukryć kasownika	!	!
4ryy	12GL	8bnX)	.
.	12d-	.	.
.	.	16r	.
.	12E-J	.	.
.	.	16bn	.
*v	*v	*	*
=71	=71	=71
*ped	*	*
!LO:TX:a:t=leggieris.	!	!
12AA-L	(>20ccLL	.
.	20dd-	.
12c 12A-	.	.
.	20bn	.
.	20dd-	.
12E-J	.	.
*Xped	*	*
.	20ccJJ	.
*ped	*	*
12AA-L	20bLL	.
.	20cc	.
12Bn 12A-X	.	.
.	20a#X	.
.	20cc	.
12DnJ	.	.
*Xped	*	*
.	20bJJ	.
*ped	*	*
12AA-L	20ccLL	.
.	20dd-	.
12c 12A-	.	.
.	20b	.
.	20dd-	.
12E-J	.	.
*Xped	*	*
.	20ccJJ	.
*ped	*	*
12AA-L	20ee-LL	.
.	20ff	.
12d-X 12G	.	.
.	20ddn	.
.	20ff	.
12E-J	.	.
*Xped	*	*
.	20ee-JJ	.
=72	=72	=72
!!linebreak:original
*ped	*	*
12AA-L	20ccLL	.
.	20dd-	.
12c 12A-	.	.
.	20bn	.
.	20dd-	.
12E-J	.	.
*Xped	*	*
.	20ccJJ	.
*ped	*	*
12CL	20b-XLL	.
.	20cc	.
12en 12G	.	.
.	20an	.
.	20cc	.
12cJ	.	.
*Xped	*	*
.	20b-JJ	.
!	!	!LO:DY:a
.	16qg/LL	<
.	16qa/JJ	.
*ped	*	*
12FL	4a\TT	.
12f 12c	.	.
*Xped	*	*
12A-J	.	.
.	16qg/LL	.
.	16qa-/JJ	.
.	16qan/LL	.
.	16qb-/JJ	.
*ped	*	*
12D-L	4bnyTT	.
12f 12B-	.	.
*Xped	*	*
[12GJ	.	[
.	16qa/LL	.
.	16qb/JJ	.
=73	=73	=73
*ped	*	*
12GL] 12C	36bnLL	.
.	36cc	.
.	36dd-	.
12en 12B-X	36cc	.
.	36b	.
.	36cc	.
12cJ	36ee-X	.
*Xped	*	*
.	36dd-	.
.	36ccJJ	.
.	8qcc/	.
*ped	*	*
12FL	12aa-L)	.
12f 12A-	(12.gg	.
*Xped	*	*
12cJ	.	.
.	24ffJk	.
!	!	!LO:DY:a
*ped	*	*
12D-L	12ffL	>
12f 12A-	12ee-	.
*Xped	*	*
12B-J	12dd-J	]
.	16qdd-/LL	<
.	16qee-/JJ	.
*ped	*	*
12E-L	12dd-L	.
12e 12G	12cc	.
12d-J	24r	.
*Xped	*	*
.	24bXJk)	[
=74	=74	=74
*^	*	*
*	*^	*	*
!!linebreak:original
*ped	*	*	*	*
2.ryy	12EnL	2.ryy	(>4cc	.
.	12g 12B-	.	.	.
.	12cJ	.	.	.
*Xped	*	*	*	*
*ped	*	*	*	*
.	12FL	.	12aa-L	.
.	12f 12A-	.	12gg	.
.	12cJ	.	12ffJ)	.
*Xped	*	*	*	*
*ped	*	*	*	*
.	12D-L	.	12ffL	>
.	12f 12A-	.	12ee-X	.
.	12B-J	.	12dd-J	.
*Xped	*	*	*	*
*ped	*	*	*	*
12ryy	12EL	4E\	28dd-LL	.
.	.	.	28ee-	.
.	.	.	28dd-J	.
!	!LO:TX:a:t=przesunięcie	!	!	!
6e-	12G	.	.	.
.	.	.	14cc	]
.	12d-J	.	.	.
*Xped	*	*	*	*
.	.	.	14b-J)	.
*v	*v	*v	*	*
=;<75	=;75	=;75
*	*^	*
*	*	*^	*
2AA- 2E- 2A-:	(2c 2e- 2a- 2cc:	2ryy	2ryy	.
2D- 2A-	4.a-	4f	2d-\	<
.	.	4f-X	.	.
.	8b-	.	.	[>
*	*v	*v	*v	*
=2	=2	=2
1A-;< 1E- 1AA-:	1cc; 1a- 1e- 1c):)	]
==	==	==
*tuplet	*tuplet	*tuplet
*-	*-	*-
!!title: @{OTL}; @{OPS} @{ONM} publisher: @{OCL}
!!!RDF**kern: > = above
!!!RDF**kern: < = below
!!!ENC:[Wojciech Jakubiak-Danek]
!!!END:[data edycji 2018-06-05]
!!!EED:[Mateusz Mrugas]
!!!EST: revision finished [data korekty 2018-06-10]